X:1
T:Title
%%score ( 1 2 ) ( 3 4 )
L:1/8
Q:1/4=100
M:3/4
K:Eb
V:1 treble nm="Midi_20"
V:2 treble 
V:3 bass nm="Midi_20"
V:4 bass 
V:1
"^St Chrysostom (8 8. 8 8. 8 8.)""^Joseph Barnby\n(1838-96)" G2 G2 G2 | G4 F2 | E4 F2 | G6 || %4
 B2 B2 B2 | B4 =A2 | G4 =A2 | B6 ||[M:3/4] B2 c2 d2 | e4 B2 | (G2 A2) B2 | c4 || c2 | c4 G2 | %14
 B4 A2 | (A2 B2) c2 | F6 || E2 E2 E2 | F4 F2 | (G2 F2) E2 | A6 || A2 G2 F2 | E4 E2 | E4 E2 | E6 |] %25
V:2
 B,2 E2 D2 | C4 C2 | B,4 D2 | E6 || D2 G2 F2 | E4 E2 | (D2 G2) ^F2 | G6 ||[M:3/4] D2 E2 F2 | %9
 E4 G2 | E4 E2 | E4 || E2 | (=E2 F2) G2 | G4 F2 | (F2 G2) A2 | D6 || E2 E2 E2 | _D4 D2 | _D4 D2 | %20
 C6 || A2 G2 F2 | E4 E2 | (E2 D2) C2 | B,6 |] %25
V:3
 B,2 B,2 B,2 | B,4 A,2 | G,4 B,2 | B,6 || B,2 D2 D2 | (D2 G,2) C2 | B,4 C2 | B,6 || %8
[M:3/4] _A,2 A,2 A,2 | G,4 B,2 | E4 _D2 | C4 || A,2 | G,4 C2 | C4 C2 | (C2 B,2) A,2 | A,6 || %17
"^1. Jesu, my Lord, my God, my all,\nHear me, blest Saviour, when I call;\nHear me, and from Thy dwelling place\nPour down the riches of thy grace:\nJesu, my Lord, I Thee adore;\nO make me love Thee more and more.\n\n2. Jesu, too late, I have Thee sought;\nHow can I love Thee as I ought?\nAnd how extol Thy matchless fame,\nThe glorious beauty of Thy Name? \nJesu, my Lord, I Thee adore;\nO make me love Thee more and more." G,2 G,2 G,2 | %18
 B,4 B,2 | B,2 A,2 G,2 | A,6 || %21
"^3. Jesu, what didst Thou find in me\nThat Thou hast dealt so lovingly?\nHow great the joy that Thou hast brought,\nSo far exceeding hope or thought:\nJesu, my Lord, I Thee adore;\nO make me love Thee more and more.\n\n4. Jesu, of Thee shall be my song;\nTo Thee my heart and soul belong;\nAll that I have or am is Thine,\nAnd Thou, blest Saviour, Thou art mine:\nJesu, my Lord, I Thee adore;\nO make me love Thee more and more." A,2 G,2 F,2 | %22
 E,4 E,2 | (C2 B,2) A,2 | G,6 |] %25
V:4
 E,2 E,2 E,2 | A,,4 A,,2 | B,,4 B,,2 | E,6 || G,2 G,2 G,2 | C,4 C,2 | D,4 D,2 | G,6 || %8
[M:3/4] F,2 F,2 B,,2 | E,4 E,2 | (E,2 F,2) G,2 | A,4 || A,2 | (C,2 D,2) =E,2 | F,4 F,2 | %15
 A,,4 A,,2 | B,,6 || C,2 C,2 C,2 | B,,4 B,,2 | E,4 E,2 | A,,6 || A,2 G,2 F,2 | E,4 E,2 | %23
 A,,4 A,,2 | E,6 |] %25

